X:1
T:Title
%%score { ( 1 3 ) | ( 2 4 ) }
L:1/8
Q:1/4=100
M:6/8
K:D
V:1 treble nm="Grand Piano"
V:3 treble 
V:2 bass 
V:4 bass 
V:1
 [FA]>[=F^G][^FA] [Fd]>[FA][FA] | [GB]3 [FA]3 | [CEG]>[CEG][CEG] [A,CE]>[A,DF][CEG] | [GB]3 A3 | %4
w: L.~L.~Pickett * * * * *||||
 B>BB [Bd]>[Ac][GB] | [FA]3 [Fd]3 | [FA]>[GB][FA] [EG]>[DF][K:bass][G,CE] | [F,D]6 | %8
w: ||||
 .[DFA]3 .[DGB]3 | [FA]>[FA][FA] [=F^G]>[^FA][=GB] | [FA]3 [DF]2 [DF] | %11
w: |||
 [EG]>[^DF][EG] [A,CE]>[EG][CGB] | [DFA]3 .[DF]3 | .[FA]3 .[Fd]3 | B>BB [Bd]>[Ac][GB] | %15
w: ||||
[M:7/8] [FA]3 [Fd]3 [A,DF] | %16
w: |
[M:3/4] [CEA]>[CEA] [CEA][EG]- [EG]/F/[K:bass][G,CE][Q:1/4=94][Q:1/4=88][Q:1/4=81] | [F,D]6 |] %18
w: ||
V:2
 [D,D]>[D,D][D,D] [D,A,]>[D,D][D,D] | [D,D]3 [D,D]3 | A,,>A,,A,, A,,>A,,A,, | z3[K:treble] F3 | %4
 [G,DG]>[G,DG][G,DG] [G,D]>[K:bass][G,D][G,D] | [D,D]3 [D,A,]3 | %6
 [D,D]>[D,D][D,A,] [A,,A,]>[A,,A,]A,, | D,6 | .D,3 .G,3 | [D,D]>[D,D][D,D] [D,D]>[D,D][D,D] | %10
 [D,D]3 [D,A,]2 [D,A,] | [A,,A,]>[A,,A,][A,,A,] z z/ C/A,, | D,3 .[D,A,]3 | .[D,D]3 .[D,D]3 | %14
 [G,DG]>[G,DG][G,DG] [G,D]>[G,D][K:bass][G,D] |[M:7/8] [D,D]3 [D,A,]3 D, |[M:3/4] z2 z .[A,,A,]3 | %17
 D,6 |] %18
V:3
 x6 | x6 | x6 | D6 | x6 | x6 | x5[K:bass] x | x6 | x6 | x6 | x6 | x6 | x6 | x6 | x6 |[M:7/8] x7 | %16
[M:3/4] x5[K:bass] x | x6 |] %18
V:4
 x6 | x6 | x6 | D,6[K:treble] | x9/2[K:bass] x3/2 | x6 | x6 | x6 | x6 | x6 | x6 | z3 .A,,3 | x6 | %13
 x6 | x5[K:bass] x |[M:7/8] x7 |[M:3/4] A,,>A,, .A,,2 z/ D/A,, | x6 |] %18

